X: 1382
T:Caher Rua
M:4/4
L:1/8
S:Tommy Peoples, Donegal (fiddle)
R:Reel
D:From a 70's demo tape
Z:Bernie Stocks
H:The 'e3's is a unison. Plyed with 14.
P:AABCABC
K:D
d3D3A {d}BAFA | (3.A.A.A-AF AFEF | DEFA {d}BAFB | ABde {a}feef |
dA(3.A.A.A BAFB | (3.A.A.FBF AF(3.E.E.F | DEFA {d}BAFB | ABde fddc ||
dD(3.D.D.D A2FA | dcde fdef | ~g3e {a}fedf | e3f edBc |
dD(3.D.D.D A2FA | dcde fdef | ~g3e fcdB | AFGE D2Ac |
dD(3.D.D.D A2FA | dcde fdef | ~g3e- ef~f2 | dfe^d e=dBc |
dD(3.D.D.D A2FA | dcde fdef | ~g3e fdfa | (3.g.g.gbg ~f3e ||
defd cdec | BcdB AFEF | DEFA {d}BAFB | ABde feef |
dA(3.A.A.A BAFB | (3.A.A.FBF AF(3.E.E.F | DEFA {d}BAFB | ABde fddc ||
